X:29
T:Connaught Man's Rambles
Z: id:dc-jig-23
M:6/8
L:1/8
K:D Major
A|FAA dAA|BAB dAG|FAA Afe|dBB B2A|!
FAA dAA|BAB def|gfe dfe|dBB B2:|!
g|fbb faa|fef deg|fbb faa|fed e2g|!
fbb faa|fef def|gfe dfe|dBB B2:|!

